X: 34587
T: Rising Tide, The
R: jig
M: 6/8
K: Aminor
|:eAA dAA|cAA AGE|GAG GEG|GAG G2d|
eAA dAA|cAA AGE|GAc ded|1 cAA A2d:|2 cAA A2g||
|:~a3 age|~g3 de/f/g|aba age|gec de/f/g|
~a3 age|~g3 de/f/g|age dcd|1 eAA A2g:|2 eAA A2d||

